X:9128
T:Lady Anne Montgomery
M:C
L:1/8
K:D Major
A|FADA FADA|FDdA BAdA|FADF EDB,G,|A,B,DE D3E|!
FADA FADA|FDdA BABc|dBAF E3F|DB,A,B, D3:|!
e|f3e fede|fedB ABde|f3e fede|fgaf efde|!
f2af efde|fedB ABde|f2ed BdAd|egfe d3:|!
